icons/line/server.svg

<svg width="24" height="24" viewBox="0 0 24 24" fill="none" xmlns="http://www.w3.org/2000/svg">
<path d="M21 12V6C21 4.89543 20.1046 4 19 4H5C3.89543 4 3 4.89543 3 6V12M21 12H3M21 12V18C21 19.1046 20.1046 20 19 20H5C3.89543 20 3 19.1046 3 18V12" stroke="currentColor" stroke-width="2" stroke-linecap="round" stroke-linejoin="round"/>
<path d="M17 8H17.01" stroke="currentColor" stroke-width="2" stroke-linecap="round" stroke-linejoin="round"/>
<path d="M17 16H17.01" stroke="currentColor" stroke-width="2" stroke-linecap="round" stroke-linejoin="round"/>
</svg>

<svg width="24" height="24" fill="none" xmlns="http://www.w3.org/2000/svg"><path d="M21 12V6a2 2 0 00-2-2H5a2 2 0 00-2 2v6m18 0H3m18 0v6a2 2 0 01-2 2H5a2 2 0 01-2-2v-6M17 8h.01M17 16h.01" stroke="currentColor" stroke-width="2" stroke-linecap="round" stroke-linejoin="round"/></svg>
